!!!COA:	Josquin des Prez
!!!CDT:	~1450-1521/08/27
!!!OTL@@FRE: Le villain
!!!AGN:	Chanson
!!!SCT:	NJE 28.22
!!!SCA:	New Josquin Edition 28.22
!!!voices:	4
**kern	**kern	**kern	**kern
*staff4	*staff3	*staff2	*staff1
*Ivox	*Ivox	*Ivox	*Ivox
*I"Bassus	*I"Tenor	*I"Altus	*I"Superius
*I'B	*I'T	*I'A	*I'S
*clefF4	*clefGv2	*clefGv2	*clefG2
*k[]	*k[]	*k[]	*k[]
*M2/1	*M2/1	*M2/1	*M2/1
*met(C|)	*met(C|)	*met(C|)	*met(C|)
=1-	=1-	=1-	=1-
1.AA	0r	0r	0r
2BB/	.	.	.
=2	=2	=2	=2
1C	1r	0r	0r
2D\	[1A	.	.
[2F\	.	.	.
=3	=3	=3	=3
2F\]	2A/]	0r	0r
4E\	2B\	.	.
4D\	.	.	.
1E	1c	.	.
=4	=4	=4	=4
1D	2d\	0r	1.a
.	1f	.	.
1D	.	.	.
.	4e\	.	2b\
.	4d\	.	.
=5	=5	=5	=5
1A	1e	1r	1cc
2F\	1d	[1A	2dd\
[2D\	.	.	[2ff\
=6	=6	=6	=6
2D\]	1D	2A/]	2ff\]
4C/	.	2B\	4ee\
4BB/	.	.	4dd\
1AA	1A	1c	1ee
=7	=7	=7	=7
1BB	0r	2d\	1.dd
.	.	1f	.
1D	.	.	.
.	.	4e\	4cc\
.	.	4d\	4b\
=8	=8	=8	=8
1C	0r	1e	2cc\
.	.	.	2.a/
[1D	.	2d\	.
.	.	.	4g/
.	.	[2f\	4f/
.	.	.	4e/
=9	=9	=9	=9
2D\]	0r	2f\]	2d/
4E\	.	4e\	1dd
4F\	.	4d\	.
2G\	.	1e	.
2A\	.	.	2cc#i\
=10	=10	=10	=10
[0D	1.f	1d	0dd
.	.	2r	.
.	2f\	[2D/	.
=11	=11	=11	=11
0D]	1.f	4D/]	1r
.	.	4E/	.
.	.	4F/	.
.	.	4G/	.
.	.	4A/	1a
.	.	4D/	.
.	2f\	[2d\	.
=12	=12	=12	=12
0r	1e	2d\]	1g
.	.	2c#i\	.
.	1d	[1d	[1f
=13	=13	=13	=13
1.F	2r	1d]	2f/]
.	2.D/	.	4e/
.	.	.	4d/
.	.	1r	[1a
.	4E/	.	.
2F\	4F/	.	.
.	4G/	.	.
=14	=14	=14	=14
1.F	4A/	1D	1a]
.	4D/	.	.
.	2.f\	.	.
.	.	1F	1r
.	4e\	.	.
2F\	[2d\	.	.
=15	=15	=15	=15
1E	2d\]	1G	1r
.	2c#i\	.	.
1D	1d	1A	1ff
=16	=16	=16	=16
2r	0r	0D	2ff\
2.D\	.	.	2ff\
.	.	.	[1ff
4E\	.	.	.
4F\	.	.	.
4G\	.	.	.
=17	=17	=17	=17
4A\	0r	0r	2ff\]
4D\	.	.	.
1d	.	.	2ff\
.	.	.	1ee
2c#i\	.	.	.
=18	=18	=18	=18
0d	0r	1r	1dd
.	.	[1f	2r
.	.	.	[2d/
=19	=19	=19	=19
0D	2.d\	2f\]	4d/]
.	.	.	4e/
.	.	2f\	4f/
.	4e\	.	4g/
.	4f\	[1f	4a/
.	4g\	.	4d/
.	2a\	.	[2ff\
=20	=20	=20	=20
1r	2d\	2f\]	4ff\]
.	.	.	4ee\
.	1.a	2f\	1dd
1A	.	1e	.
.	.	.	2cc#i\
=21	=21	=21	=21
2B\	2f\	1d	4dd\
.	.	.	4cc\
2G\	2g\	.	4b\
.	.	.	4a/
2A\	2f\	2c\	2cc\
2G\	2g\	2d\	[2b\
=22	=22	=22	=22
1A	2f\	2c\	4b\]
.	.	.	4a/
.	1.e	2A/	1a
1E	.	1B	.
.	.	.	2g#i/
=23	=23	=23	=23
1AA	2c\	[0A	[0a
.	2A/	.	.
2r	2.c\	.	.
[2c\	.	.	.
.	4B\	.	.
=24	=24	=24	=24
4c\]	4A/	0A_	0a]
4B\	4G/	.	.
4A\	2F/	.	.
4G\	.	.	.
2F\	2.A/	.	.
[2A\	.	.	.
.	4G/	.	.
=25	=25	=25	=25
4A\]	4F/	0A]	0r
4G\	4E/	.	.
4F\	2D/	.	.
4E\	.	.	.
2D\	2d\	.	.
2C/	2e\	.	.
=26	=26	=26	=26
1F	2c\	0r	0r
.	1f	.	.
1G	.	.	.
.	2e\	.	.
=27	=27	=27	=27
[0F	0f	1r	1r
.	.	[1f	2r
.	.	.	[2cc\
=28	=28	=28	=28
0F]	0r	2f\]	4cc\]
.	.	.	4b\
.	.	2f\	4a/
.	.	.	4g/
.	.	[1f	2f/
.	.	.	[2a/
=29	=29	=29	=29
0r	1r	2f\]	4a/]
.	.	.	4g/
.	.	2f\	4f/
.	.	.	4e/
.	2r	[1f	2.d/
.	[2D/	.	.
.	.	.	4c/
=30	=30	=30	=30
0r	2D/]	2f\]	4B/
.	.	.	4A/
.	2F/	2f\	1d
.	2G/	1e	.
.	2A/	.	2c/
=31	=31	=31	=31
0r	1D	1d	4f/
.	.	.	4g/
.	.	.	4a/
.	.	.	4b\
.	1r	2c\	2cc\
.	.	2d\	[2b\
=32	=32	=32	=32
0r	0r	2c\	2b\]
.	.	2A/	1a
.	.	1B	.
.	.	.	2g/
=33	=33	=33	=33
1r	1r	[0A	2a/
.	.	.	1f
[1F	2r	.	.
.	[2f\	.	4e/
.	.	.	4d/
=34	=34	=34	=34
2F\]	2f\]	1A]	2c/
2F\	4e\	.	2d/
.	4d\	.	.
[1F	2c\	2r	1A
.	2d\	[2f\	.
=35	=35	=35	=35
2F\]	1A	2f\]	1r
2F\	.	4e\	.
.	.	4d\	.
[1F	2r	2c\	[1a
.	[2D/	2d\	.
=36	=36	=36	=36
2F\]	4D/]	1A	1a]
.	4E/	.	.
2F\	2F/	.	.
1E	2G/	2B\	1g
.	2C/	[2c\	.
=37	=37	=37	=37
1D	1F	2c\]	1f
.	.	4B\	.
.	.	4A/	.
2C/	2r	2c\	2e/
2D\	2F/	[2B\	2f/
=38	=38	=38	=38
2C/	1C	2B\]	2e/
2AA/	.	1A	2f/
1BB	1D	.	4g/
.	.	.	4f/
.	.	2G#i/	4e/
.	.	.	4d/
=39	=39	=39	=39
[0AA	[0E	[0A	0c
=40	=40	=40	=40
0AA]	0E]	0A]	1r
.	.	.	[1e
=41	=41	=41	=41
0r	1.E	0r	2e/]
.	.	.	2f/
.	.	.	2g/
.	2F/	.	2a/
=42	=42	=42	=42
0r	1G	0r	4b\
.	.	.	4cc\
.	.	.	4dd\
.	.	.	4b\
.	2A/	.	2cc\
.	[2c\	.	4b\
.	.	.	4a/
=43	=43	=43	=43
0r	2c\]	0r	2g/
.	4B\	.	1a
.	4A/	.	.
.	1B	.	.
.	.	.	2g#i/
=44	=44	=44	=44
1.AA	0A	0r	0a
2BB/	.	.	.
=45	=45	=45	=45
1C	0r	1r	0r
2D\	.	[1A	.
[2F\	.	.	.
=46	=46	=46	=46
2F\]	0r	2A/]	0r
4E\	.	2B\	.
4D\	.	.	.
1E	.	1c	.
=47	=47	=47	=47
0D	0r	2d\	1.a
.	.	1f	.
.	.	4e\	2b\
.	.	4d\	.
=48	=48	=48	=48
1A	1r	1e	1cc
2F\	[1A	1d	2dd\
[2D\	.	.	[2ff\
=49	=49	=49	=49
2D\]	2A/]	1D	2ff\]
4C/	2B\	.	4ee\
4BB/	.	.	4dd\
1AA	1c	1A	1ee
=50	=50	=50	=50
1BB	2d\	0r	1.dd
.	1f	.	.
1D	.	.	.
.	4e\	.	4cc\
.	4d\	.	4b\
=51	=51	=51	=51
1C	1e	0r	2cc\
.	.	.	2.a/
[1D	2d\	.	.
.	.	.	4g/
.	[2f\	.	4f/
.	.	.	4e/
=52	=52	=52	=52
2D\]	2f\]	0r	2d/
4E\	4e\	.	1dd
4F\	4d\	.	.
2G\	1e	.	.
2A\	.	.	2cc#i\
=53	=53	=53	=53
[0D	1d	1.f	0dd
.	2r	.	.
.	[2D/	2f\	.
=54	=54	=54	=54
0D]	4D/]	1.f	1r
.	4E/	.	.
.	4F/	.	.
.	4G/	.	.
.	4A/	.	1a
.	4D/	.	.
.	[2d\	2f\	.
=55	=55	=55	=55
0r	2d\]	1e	1g
.	2c#i\	.	.
.	[1d	1d	[1f
=56	=56	=56	=56
1.F	1d]	2r	2f/]
.	.	2.D/	4e/
.	.	.	4d/
.	1r	.	[1a
.	.	4E/	.
2F\	.	4F/	.
.	.	4G/	.
=57	=57	=57	=57
1.F	1D	4A/	1a]
.	.	4D/	.
.	.	2.f\	.
.	1F	.	1r
.	.	4e\	.
2F\	.	[2d\	.
=58	=58	=58	=58
1E	1G	2d\]	1r
.	.	2c#i\	.
1D	1A	1d	[1ff
=59	=59	=59	=59
2r	0D	0r	2ff\]
2.D\	.	.	2ff\
.	.	.	[1ff
4E\	.	.	.
4F\	.	.	.
4G\	.	.	.
=60	=60	=60	=60
4A\	0r	0r	2ff\]
4D\	.	.	.
1d	.	.	2ff\
.	.	.	1ee
2c#i\	.	.	.
=61	=61	=61	=61
0d	1r	0r	1dd
.	[1f	.	2r
.	.	.	[2d/
=62	=62	=62	=62
0D	2f\]	2.d\	4d/]
.	.	.	4e/
.	2f\	.	4f/
.	.	4e\	4g/
.	[1f	4f\	4a/
.	.	4g\	4d/
.	.	2a\	[2ff\
=63	=63	=63	=63
1r	2f\]	2d\	4ff\]
.	.	.	4ee\
.	2f\	1.a	1dd
1A	1e	.	.
.	.	.	2cc#i\
=64	=64	=64	=64
2B\	1d	2f\	4dd\
.	.	.	4cc\
2G\	.	2g\	4b\
.	.	.	4a/
2A\	2c\	2f\	2cc\
2G\	2d\	2g\	[2b\
=65	=65	=65	=65
1A	2c\	2f\	2b\]
.	2A/	1.e	1a
1E	1B	.	.
.	.	.	2g/
=66	=66	=66	=66
2F\	[0Al	2c\	2a/
1D	.	2d\	1f
.	.	1D	.
4C/	.	.	4e/
4BB/	.	.	4d/
=67	=67	=67	=67
0AAl	0A]	0El	0cl
==	==	==	==
*-	*-	*-	*-
!!!RDF**kern: l=long note in original notation
!!!RDF**kern: i=editorial accidental
!!!ENC:	Will Watson 19/08/2011
!!!END:	2011/08/19/
!!!EED:	Jesse Rodin
!!!EEV:	2011/09/21/
!!attribution-level@Jos: 3 (tricky)
!!!ONB:	Translated from MusicXML and edited on 2011/09/21/ by Craig Sapp
!!muse2ps: C^@{COA}?\n@{SCT}^i2I150v90,90,90,150Q16
